resources/haticons/SVG/charging_station.svg

<!-- Generated by IcoMoon.io -->
<svg version="1.1" xmlns="http://www.w3.org/2000/svg" width="24" height="24" viewBox="0 0 24 24">
<title>charging_station</title>
<path d="M14.484 11.016l-3 6v-4.031h-1.969l3-6v4.031h1.969zM6.984 0.984h10.031q0.797 0 1.383 0.586t0.586 1.43v18q0 0.844-0.586 1.43t-1.383 0.586h-10.031q-0.797 0-1.383-0.586t-0.586-1.43v-18q0-0.844 0.586-1.43t1.383-0.586zM6.984 6v12h10.031v-12h-10.031z"></path>
</svg>

<svg xmlns="http://www.w3.org/2000/svg" width="24" height="24"><path d="M14.484 11.016l-3 6v-4.031H9.515l3-6v4.031h1.969zM6.984.984h10.031q.797 0 1.383.586T18.984 3v18q0 .844-.586 1.43t-1.383.586H6.984q-.797 0-1.383-.586T5.015 21V3q0-.844.586-1.43T6.984.984zm0 5.016v12h10.031V6H6.984z"/></svg>
